X: 1285
T: Ballinasloe Fair
R:Reel
N:Collected by McFadden
B:O'Neill's 1285
Z:Transcribed by Trish O'Neil
M:C|
L:1/8
K:Am
(cB) | AGAB TcBcA | GECE TGFGB | AGAB TcBca |1 gedB cedB :|2 gede cdef ||
g>c {d}(3cBc gcac | gc {d}(3cBc Bcdf | gc {d}(3cBc Tagaa | gede cdef |
gc {d}(3cBc gcac | gc {d}(3cBc BcdB | AGAB cdea | gede cedB |]


